X: 2329
M: C
L: 1/8
K: G
cAcA BGBG | AcAF GFED |\
egfa gedc | B2G2 G2 |]
z2 |\
eaaa a2a2 | ABAG GFED |\
egfa gedc | B2G2 G2 |]


